X:8016
T:Halsway Schottische
T:Halsway Carol
R:Schottische
C:Nigel Eaton 2011
O:England
Z:Paul Hardy's Session Tunebook 2022 (see www.paulhardy.net). Creative Commons cc by-nc-sa licenced.
M:4/4
L:1/8
Q:1/4=160
K:D
z|"D"A2GF "A"EDEF|"G"B2A2"Em"E2FG|"G"B2A2 "Em"GFED|"G"G2F2"A"E4|
"D"A2GF "A"EDEF|"G"G2F2"A"E2F2|"D"D2EF "G"GFED|"A7"F2E2 "D"D3:|
|:d|"D"cd A3 dcd|"G"G2GA "D"F2FG|"Em"E2FG "D"AGFE|"G"G2F2 "A"E3d|
"D"cd A2 "A"ABcd|"G"G2GA "D"F2FG|"Em"E2FG "D"AGFE|"A7"F2E2 "D"D3:|

